!!!COM:	de Orto, Marbrianus
!!!CDT:	~1460///-1529//
!!!OPR:	Missa Dominicalis
!!!ONM:	4
!!!OTL:	Sanctus
!!!AGN:	Mass; Sanctus
!!!SCT:	Ort1001d
!!!SCA:	Ort1001d
!!!voices:	4
!!!voices-OPR:	4
**kern	**kern	**kern	**kern
*staff4	*staff3	*staff2	*staff1
*Ivox	*Ivox	*Ivox	*Ivox
*I"Bassus	*I"Tenor	*I"Altus	*I"Discantus
*I'B	*I'T	*I'A	*I'D
*>[A,B,C,D]	*>[A,B,C,D]	*>[A,B,C,D]	*>[A,B,C,D]
*>A	*>A	*>A	*>A
*clefF4	*clefGv2	*clefGv2	*clefG2
*k[b-]	*k[b-]	*k[b-]	*k[b-]
*M3/1	*M3/1	*M3/1	*M3/1
*met(O)	*met(O)	*met(O)	*met(O)
!!section: Sanctus
!!!OMD: Sanctus
=1-	=1-	=1-	=1-
0.r	1F	1r	0.r
.	2.G/	1r	.
.	4F/	.	.
.	2G/	2r	.
.	2A/	2c\	.
=2	=2	=2	=2
1r	2.B-\	2.d\	0.r
.	4A/	4c\	.
2r	2B-\	2d\	.
2C/	2c\	2e\	.
2.D\	[1A	2.f\	.
4C/	.	4e\	.
=3	=3	=3	=3
2F\	1A]	2c\	2r
2D\	.	2d\	2f/
1E-i	1G	2B-\	2.g/
.	.	2G/	.
.	.	.	4a/
2.E-\	1r	2.g\	2.b-\
4F\	.	4f\	4a/
=4	=4	=4	=4
2G\	1r	2d\	2b-\
1F	.	1a	2.cc\
.	1c	.	.
.	.	.	4b-\
2E\	.	1g	4a/
.	.	.	4g/
1D	1d	.	1a
.	.	2f#i\	.
=5	=5	=5	=5
2r	1G	1g	1g
1G	.	.	.
.	1A	2e\	1cc
2F\	.	2f\	.
1G	1B-	1d	2r
.	.	.	2dd\
=6	=6	=6	=6
1C	1.c	2e\	2cc\
.	.	2.g\	2.ee\
1r	.	.	.
.	.	4f\	4dd\
.	2B-\	2d\	1dd
1r	1A	1e	.
.	.	.	2cc\
=7	=7	=7	=7
1.G	[0.B-	2d\	2.dd\
.	.	2B-\	.
.	.	.	4cc\
.	.	4G/	4b-\
.	.	4A/	4a/
2E\	.	4B-\	2g/
.	.	4G/	.
2D\	.	[1d	2f/
[2G\	.	.	2g/
=8	=8	=8	=8
2G\]	1B-]	1d]	2d/
2D\	.	.	2.f/
1F	0A	1c	.
.	.	.	4g/
.	.	.	2.a/
1r	.	2f\	.
.	.	.	4b-\
.	.	4e\	2cc\
.	.	4c\	.
=9	=9	=9	=9
2G\	2G/	2d\	2b-\
1F	2.c\	2.f\	2.a/
.	4B-\	4e\	4g/
2E\	2G/	2c\	1g
1D	1A	1d	.
.	.	.	2f#i/
=10	=10	=10	=10
2d\	1G	0.r	1g
4e-i\	.	.	.
2d\	.	.	.
.	2A/	.	1r
4c\	.	.	.
2B-\	1G	.	.
1A	.	.	1cc
.	2F#i/	.	.
=11	=11	=11	=11
2G\	1G	1d	2b-\
2B-\	.	.	2dd\
2c\	1r	0g	2ee-i\
2.B-\	.	.	2.dd\
.	1r	.	.
4A\	.	.	4cc\
2G\	.	.	2b-\
=12	=12	=12	=12
1F	0.r	1a	2a/
.	.	.	2cc\
2r	.	0f	2dd\
1F	.	.	2.cc\
.	.	.	4b-\
2F\	.	.	2a/
=13	=13	=13	=13
1E-	0.r	2r	2g/
.	.	1g	1b-
2r	.	.	.
2F\	.	2f\	2a/
1G	.	[1d	2b-\
.	.	.	4a/
.	.	.	4g/
=14	=14	=14	=14
2.D\	0.r	1d]	2.f/
4E\	.	.	4g/
2F\	.	0c	2a/
2E\	.	.	2.g/
1C	.	.	.
.	.	.	4f/
.	.	.	2e/
=15	=15	=15	=15
1G	0.r	2B-\	2d/
.	.	2G/	2.e/
2D\	.	2B-\	.
.	.	.	4d/
2F\	.	1A	1d
1E	.	.	.
.	.	2G/	2c#i/
=16	=16	=16	=16
1D	1r	2A/	2d/
.	.	4B-\	2.f/
.	.	4A/	.
1r	1r	2d\	.
.	.	.	4d/
.	.	2B-\	1g
1r	1c	1A	.
.	.	.	2f#i/
=17	=17	=17	=17
1.G	0d	1G	2g/
.	.	.	1b-
.	.	2d\	.
2F\	.	2f\	2a/
2c\	1e	2g\	2g/
[2A\	.	[2a\	[2cc\
=18	=18	=18	=18
2A\]	1f	2a\]	2cc\]
2B-\	.	2f\	1dd
2G\	1e	2b-\	.
2A\	.	1a	2cc\
1B-	1d	.	2ff\
.	.	2g\	4ee\
.	.	.	4dd\
=19	=19	=19	=19
1A	1e	1a	1cc
2.d\	0f	1r	2.a/
4c\	.	.	4b-\
2A\	.	1r	2cc\
2B-\	.	.	2dd\
=20	=20	=20	=20
2r	1g	0.r	4ee\
.	.	.	4dd\
2G\	.	.	4cc\
.	.	.	4b-\
2d\	2f\	.	2a/
2G\	2g\	.	1dd
1A	1e	.	.
.	.	.	2cc#i\
=21	=21	=21	=21
0D	0f	2.d\	1dd
.	.	4c\	.
.	.	2A/	1r
.	.	2B-\	.
1A	1e	1c	1r
=22	=22	=22	=22
1B-	1d	1G	0.r
1A	2.e\	2.c\	.
.	4d\	4d\	.
2A\	2c\	2e\	.
[2D\	[2d\	[2f\	.
=23	=23	=23	=23
4D\]	4d\]	4f\]	0.r
4E\	4c\	4g\	.
2F\	2A/	2a\	.
2G\	2B-\	2d\	.
2B-\	1d	1g	.
1A	.	.	.
.	2c\	2f#i\	.
=24	=24	=24	=24
1G	0d	1g	1b-
1B-	.	2r	2.dd\
.	.	1f	.
.	.	.	4cc\
2r	1r	.	2a/
2G\	.	2g\	2b-\
=25	=25	=25	=25
2.A-\	0.r	2c\	1cc
.	.	1e-i	.
4G\	.	.	.
2E-i\	.	.	2g/
1G	.	2d\	2.b-\
.	.	2B-\	.
.	.	.	4a/
[2D\	.	[2d\	2f/
=26	=26	=26	=26
2D\]	0.r	2d\]	2a/
2E-i\	.	2B-\	2.g/
2C/	.	2c\	.
.	.	.	4a/
2G\	.	1d	2b-\
4F\	.	.	2a/
4Eni\	.	.	.
2C/	.	2e-i\	2cc\
=27	=27	=27	=27
1G	0.r	1d	2b-\
.	.	.	2.dd\
2G\	.	2B-\	.
.	.	.	4cc\
2.F\	.	2c\	2.a/
.	.	2d\	.
4G\	.	.	4g/
2A\	.	2c\	2e/
=28	=28	=28	=28
2B-\	0.r	1d	2d/
2.G\	.	.	2.b-\
.	.	1G	.
4F\	.	.	4a/
2E\	.	.	1g
1D	.	1A	.
.	.	.	2f#i/
=29	=29	=29	=29
0.Gl	0.r	0.Gl	0.gl
!!LO:LB:i:g=z
=30||	=30||	=30||	=30||
*>B	*>B	*>B	*>B
*clefF4	*clefGv2	*clefGv2	*clefG2
*k[b-]	*k[b-]	*k[b-]	*k[b-]
*M3/1	*M3/1	*M3/1	*M3/1
*met(O)	*met(O)	*met(O)	*met(O)
!!section: Pleni sunt celi
!!!OMD: Pleni sunt celi
1F	0.r	1r	0.r
1G	.	1B-	.
2A\	.	2c\	.
[2B-\	.	[2d\	.
=31	=31	=31	=31
4B-\]	0.r	4d\]	0.r
4A\	.	4c\	.
2.G\	.	2B-\	.
.	.	1A	.
4E\	.	.	.
2F\	.	.	.
1G	.	2B-\	.
.	.	4A/	.
.	.	4G/	.
=32	=32	=32	=32
2A\	0.r	1F	0.r
1D	.	.	.
.	.	2B-\	.
2D\	.	2A/	.
1G	.	2B-\	.
.	.	[2d\	.
=33	=33	=33	=33
2F\	0.r	2d\]	0.r
2G\	.	2B-\	.
1A	.	2c\	.
.	.	4B-\	.
.	.	4A/	.
1B-	.	2G/	.
.	.	[2d\	.
=34	=34	=34	=34
1A	0.r	2d\]	0.r
.	.	2c\	.
1G	.	2B-\	.
.	.	2.d\	.
1F#	.	.	.
.	.	4c\	.
.	.	2A/	.
=35	=35	=35	=35
2r	0.r	2G/	0.r
2G\	.	1d	.
2F\	.	.	.
2.G\	.	2B-\	.
.	.	1A	.
4E\	.	.	.
2F\	.	.	.
=36	=36	=36	=36
1G	0.r	2G/	0.r
.	.	2g\	.
1B-	.	2f\	.
.	.	2.g\	.
1A	.	.	.
.	.	4e\	.
.	.	2f#i\	.
=37	=37	=37	=37
2r	0.r	2.g\	0.r
1B-	.	.	.
.	.	4f\	.
.	.	2d\	.
2A\	.	1c	.
2.c\	.	.	.
.	.	2g\	.
4B-\	.	.	.
=38	=38	=38	=38
1A	0.r	2f\	0.r
.	.	2.e\	.
1D	.	.	.
.	.	4d\	.
.	.	1d	.
1E	.	.	.
.	.	2c#i\	.
=39	=39	=39	=39
1D	0.r	1d	1f
2E\	.	2G/	2g/
2D\	.	1d	2a/
2.G\	.	.	2.b-\
.	.	2G/	.
4F\	.	.	4a/
=40	=40	=40	=40
0.D	0.r	2d\	2f/
.	.	4c\	1a
.	.	4B-\	.
.	.	2.A/	.
.	.	.	1g
.	.	4G/	.
.	.	1A	.
.	.	.	2f#i/
=41	=41	=41	=41
2r	0.r	1G	2g/
2G\	.	.	2b-\
2A\	.	1r	2cc\
2G\	.	.	2.dd\
2B-\	.	1r	.
.	.	.	4cc\
2c\	.	.	[2a/
=42	=42	=42	=42
1d	0.r	2r	2a/]
.	.	2d\	2b-\
1r	.	2e\	2g/
.	.	2d\	2.a/
1r	.	2f\	.
.	.	.	4g/
.	.	2g\	2e/
=43	=43	=43	=43
0.r	0.r	2.a\	2f/
.	.	.	2d/
.	.	8g\L	.
.	.	8f\J	.
.	.	4e\	2g/
.	.	4d\	.
.	.	1g	2b-\
.	.	.	1a
.	.	2f#i\	.
=44	=44	=44	=44
0.r	0.r	1g	2g/
.	.	.	2.b-\
.	.	2G/	.
.	.	.	4a/
.	.	2.B-\	2f/
.	.	.	2g/
.	.	4A/	.
.	.	2F/	2a/
=45	=45	=45	=45
1r	0.r	2G/	2d/
.	.	2A/	2f/
2r	.	2B-\	2g/
2F\	.	2A/	2a/
2G\	.	2.d\	2b-\
[2F\	.	.	[2a/
.	.	4c\	.
=46	=46	=46	=46
2F\]	0.r	2A/	4a/]
.	.	.	4g/
2D\	.	1d	2f/
2G\	.	.	1e
2A\	.	2c#i\	.
1B-	.	1d	2d/
.	.	.	[2f/
=47	=47	=47	=47
1A	0.r	0.r	2f/]
.	.	.	2e/
2B-\	.	.	2d/
2c\	.	.	1g
1A	.	.	.
.	.	.	2f/
=48	=48	=48	=48
1c	0.r	1r	2e/
.	.	.	1a
1B-	.	2.d\	.
.	.	.	2g/
.	.	4e\	.
2A\	.	2f\	2f/
2G\	.	[2g\	[2b-\
=49	=49	=49	=49
1.c	0.r	2g\]	2b-\]
.	.	1e	2a/
.	.	.	2g/
2A\	.	2c\	1cc
1G	.	2.d\	.
.	.	.	2b-\
.	.	4e\	.
=50	=50	=50	=50
2F\	0.r	0f	2a/
1B-	.	.	1dd
2A\	.	.	2cc\
2G\	.	2r	2b-\
2F\	.	2f\	[2cc\
=51	=51	=51	=51
1A	0.r	2e\	4cc\]
.	.	.	4b-\
.	.	2c\	4a/
.	.	.	4g/
1D	.	2d\	1f
.	.	2.B-\	.
1r	.	.	2g/
.	.	4A/	.
.	.	2F/	[2a/
=52	=52	=52	=52
1F	0.r	2c\	4a/]
.	.	.	4b-\
.	.	2A/	2cc\
2B-\	.	2G/	2.dd\
2G\	.	2.d\	.
.	.	.	4cc\
1F	.	.	2a/
.	.	4c\	.
.	.	2A/	2cc\
=53	=53	=53	=53
2G\	0.r	1d	2b-\
2D\	.	.	2.a/
1E	.	1G	.
.	.	.	4g/
.	.	.	1g
1D	.	1A	.
.	.	.	2f#i/
=54	=54	=54	=54
0.Gl	0.r	0.Gl	0.gl
!!LO:LB:i:g=z
=55||	=55||	=55||	=55||
*>C	*>C	*>C	*>C
*clefF4	*clefGv2	*clefGv2	*clefG2
*k[b-]	*k[b-]	*k[b-]	*k[b-]
*M2/1	*M2/1	*M2/1	*M2/1
*met(C|)	*met(C|)	*met(C|)	*met(C|)
!!section: Osanna
!!!OMD: Osanna
1G	0r	0r	0r
1B-	.	.	.
=56	=56	=56	=56
1c	0r	1r	1g
1d	.	1G	1b-
=57	=57	=57	=57
2.c\	0r	1A	1cc
4B-\	.	.	.
1G	.	1B-	1dd
=58	=58	=58	=58
2A\	0r	4c\	2.cc\
.	.	4d\	.
4G\	.	4e\	.
4F\	.	4f\	4dd\
2E\	.	2g\	2ee\
[2D\	.	[2a\	[2ff\
=59	=59	=59	=59
2D\]	0r	2a\]	2ff\]
2D\	.	2f\	1dd
1A	.	1e	.
.	.	.	2cc#i\
=60	=60	=60	=60
0B-	0r	1d	0dd
.	.	[1f	.
=61	=61	=61	=61
1F	0r	1f]	1cc
1G	.	2.d\	1b-
.	.	4e\	.
=62	=62	=62	=62
2D\	0r	2f\	2a/
2E\	.	1g	2g/
1D	.	.	1a
.	.	2f#i\	.
=63	=63	=63	=63
1r	1G	0g	0g
1G	1B-	.	.
=64	=64	=64	=64
1F	1c	0r	0a
1D	[1d	.	.
=65	=65	=65	=65
0E	2d\]	1r	0g
.	4c#i\	.	.
.	4Bni\	.	.
.	1c#i	1G	.
=66	=66	=66	=66
1D	1d	2A/	1f
.	.	1B-	.
2G\	1d	.	2g/
[2F\	.	[2f\	[2a/
=67	=67	=67	=67
2F\]	1.c	2f\]	2a/]
2G\	.	4e\	4g/
.	.	4d\	4f/
1A	.	1c	1e
.	4B-\	.	.
.	4A/	.	.
=68	=68	=68	=68
2.B-\	0G	1d	2r
.	.	.	1d
4A\	.	.	.
4G\	.	1B-	.
4F\	.	.	.
2E\	.	.	[2g/
=69	=69	=69	=69
1.D	[0A	1d	2g/]
.	.	.	1f
.	.	2A/	.
2C/	.	2c\	2e/
=70	=70	=70	=70
2D\	1A]	1F	2f/
2F\	.	.	1a
2D\	[1B-	1r	.
[2E-i\	.	.	[2g/
=71	=71	=71	=71
2E-\]	1B-]	2B-\	2g/]
2D\	.	2d\	2f/
2C/	2c\	2e\	2g/
2BB-/	2d\	[2f\	[2b-\
=72	=72	=72	=72
1F	1c	2f\]	2b-\]
.	.	2f\	2a/
1r	1G	1g	2b-\
.	.	.	[2dd\
=73	=73	=73	=73
1r	1B-	2f\	4dd\]
.	.	.	4ee\
.	.	2d\	2.ff\
1F	1A	2c\	.
.	.	.	4ee\
.	.	2f\	4dd\
.	.	.	4cc\
=74	=74	=74	=74
2G\	2G/	2d\	2b-\
2A\	2F/	1f	1cc
1B-	1G	.	.
.	.	2e\	[2b-\
=75	=75	=75	=75
1c	1F	1f	2b-\]
.	.	.	2a/
1B-	1G	1d	1b-
=76	=76	=76	=76
2e-i\	1G	0r	0r
2.d\	.	.	.
.	1F	.	.
4c\	.	.	.
2A\	.	.	.
=77	=77	=77	=77
2.B-\	1G	2.d\	0r
4A\	.	4e\	.
1F	1A	4f\	.
.	.	4g\	.
.	.	[2a\	.
=78	=78	=78	=78
1c	1F	2a\]	0r
.	.	2f\	.
2.C/	[1c	2e\	.
.	.	[2g\	.
4D\	.	.	.
=79	=79	=79	=79
4E\	2c\]	4g\]	0r
4F\	.	4f\	.
1G	2B-\	1d	.
.	2.G/	.	.
[2E\	.	[2G/	.
.	4A/	.	.
=80	=80	=80	=80
4E\]	2B-\	2G/]	0r
4D\	.	.	.
2C/	2c\	1g	.
1D	1A	.	.
.	.	2f#i\	.
=81	=81	=81	=81
1d	0G	0g	1b-
2e-i\	.	.	1b-
[2d\	.	.	.
=82	=82	=82	=82
2d\]	0r	1r	2a/
4c\	.	.	2.g/
4B-\	.	.	.
1A	.	1c	.
.	.	.	4f#i/
.	.	.	2f#i/
=83	=83	=83	=83
0G	0d	1.B-	1g
.	.	.	1b-
.	.	4A/	.
.	.	4G/	.
=84	=84	=84	=84
1D	[0f	2.F/	2.a/
.	.	4G/	4b-\
2r	.	2A/	2cc\
[2BB-/	.	[2B-\	[2dd\
=85	=85	=85	=85
2BB-/]	0f]	2B-\]	2dd\]
2C/	.	2G/	4cc\
.	.	.	4b-\
1D	.	2r	1a
.	.	[2d\	.
=86	=86	=86	=86
1E	0g	2d\]	1g
.	.	2.B-\	.
1G	.	.	1b-
.	.	4c\	.
.	.	4d\	.
.	.	4e\	.
=87	=87	=87	=87
1F	1a	1f	1cc
2B-\	[1g	1d	1dd
2G\	.	.	.
=88	=88	=88	=88
1c	1g]	0r	1ee-
2r	1f	.	[1dd
2B-\	.	.	.
=89	=89	=89	=89
0c	0e	[0g	2dd\]
.	.	.	2cc\
.	.	.	1cc
=90	=90	=90	=90
0G	0d	0g]	0bn
=91	=91	=91	=91
0r	1.e	2.g\	2.cc\
.	.	4f\	4b-\
.	.	2g\	2cc\
.	[2f\	2a\	[2dd\
=92	=92	=92	=92
1r	1f]	1d	4dd\]
.	.	.	4cc\
.	.	.	4b-\
.	.	.	4a/
1c	1e	2r	2.g/
.	.	[2g\	.
.	.	.	4a/
=93	=93	=93	=93
2G\	2d\	2g\]	2b-\
2A\	2c\	2f\	1cc
1G	1d	1g	.
.	.	.	2bni\
=94	=94	=94	=94
0C	0c	1r	1cc
.	.	1G	1r
=95	=95	=95	=95
*M2/1	*	*M2/1	*M2/1
*met(3)	*	*met(3)	*met(3)
3%4BB-	3%4dV	3%4B-	3%4.f
3%2BB-	3%2dZ	3%2B-	.
=96	=96	=96	=96
3%2E-	3%2cV	3%2G	3%2.g
3%4D	3%4dZ	3%4A	.
.	.	.	6f#i/
.	.	.	6e/
.	.	.	3%2f#i
=97	=97	=97	=97
3%4.G	3%4e-iV	3%2G	3%4g
.	.	3%2.B-	.
.	[3%2dZ	.	3%2b-
.	.	6A/	.
.	.	6G/	.
=98	=98	=98	=98
3%4.D	3%2d]V	3%2F	3%4a
.	3%4dZ	3%4A	.
.	.	.	3%2f
=99	=99	=99	=99
3%4.r	3%2B-V	3%2G	3%2g
.	3%4cZ	3%4A	3%4e
=100	=100	=100	=100
3%4.D	[0d	3%2r	3d/
.	.	.	3e/
.	.	3d\	3f/
.	.	3e\	3g/
.	.	3%2f	3%2a
=101	=101	=101	=101
3%2G	0d]	3%4g	3%2b-
3%4D	.	.	3%4a
.	.	3%2f#i	.
=102	=102	=102	=102
3%4G	0e	3%4g	3%4g
[3%2F	.	[3%2a	[3%2cc
=103	=103	=103	=103
3%2F]	[0f	3%2a]	3%2cc]
3%2.B-	.	3%2f	3%2.dd
.	.	3%2d	.
3c\	.	.	3cc\
=104	=104	=104	=104
3%4d	0f]	3%2f	3%4a
.	.	3%4a	.
[3%2A	.	.	[3%2cc
=105	=105	=105	=105
3%2A]	0e	3%2a	3%2cc]
3%2c	.	3%2e	3%2g
3%2C	.	[3%2g	3%2cc
=106	=106	=106	=106
3%4G	[0dl	3%2g]	3%2.b-
.	.	3%2g	.
.	.	.	3a/
3%2G	.	[3%2d	3%2g
=107	=107	=107	=107
3%2.D	0d_	3d\]	3%2f
.	.	3e\	.
.	.	3f\	3%2.a
3E\	.	3e\	.
3%2F	.	3d\	.
.	.	3c\	3g/
=108	=108	=108	=108
3%2G	0d_	3%2B-	3%4g
3%4D	.	3%4A	.
.	.	.	3%2f#i
=109	=109	=109	=109
3%4.Gl	0d]	3%4.Gl	3%4.gl
!!LO:LB:i:g=z
!!LO:TX:rj:i:Y=40:t=fine
=110||	=110||	=110||	=110||
*>D	*>D	*>D	*>D
*clefF4	*clefGv2	*clefGv2	*clefG2
*k[b-]	*k[b-]	*k[b-]	*k[b-]
*M2/1	*M2/1	*M2/1	*M2/1
*met(C|)	*met(C|)	*met(C|)	*met(C|)
!!section: Benedictus
!!!OMD: Benedictus
0r	0F	1A	0r
.	.	[1d	.
=111	=111	=111	=111
0r	0G	2d\]	0r
.	.	2c\	.
.	.	1B-	.
=112	=112	=112	=112
0r	0A	4c\	0r
.	.	4B-\	.
.	.	4A/	.
.	.	4G/	.
.	.	1F#	.
=113	=113	=113	=113
0r	[0G	1G	1b-
.	.	1r	[1dd
=114	=114	=114	=114
0r	0G]	0r	2dd\]
.	.	.	2cc\
.	.	.	1b-
=115	=115	=115	=115
0r	0A	1r	4cc\
.	.	.	4b-\
.	.	.	4a/
.	.	.	4g/
.	.	2.c\	1f#
.	.	4d\	.
=116	=116	=116	=116
0r	[0G	2e\	1g
.	.	1d	.
.	.	.	1r
.	.	[2g\	.
=117	=117	=117	=117
0C	0G]	4g\]	0r
.	.	4f\	.
.	.	4e\	.
.	.	4d\	.
.	.	1e	.
=118	=118	=118	=118
0D	0F	1f	0r
.	.	2e\	.
.	.	[2d\	.
=119	=119	=119	=119
0E	0r	2d\]	0r
.	.	4c\	.
.	.	4B-\	.
.	.	4c\	.
.	.	4B-\	.
.	.	4A/	.
.	.	4G/	.
=120	=120	=120	=120
0D	0r	2.F/	0r
.	.	4G/	.
.	.	2A/	.
.	.	[2B-\	.
=121	=121	=121	=121
1E	0r	2B-\]	0r
.	.	4A/	.
.	.	4G/	.
1D	.	2F/	.
.	.	[2A/	.
=122	=122	=122	=122
1C	0r	2A/]	0r
.	.	2.G/	.
1E	.	.	.
.	.	4A/	.
.	.	4B-\	.
.	.	4c\	.
=123	=123	=123	=123
1G	0r	2B-\	0r
.	.	2.d\	.
2F\	.	.	.
.	.	4c\	.
[2G\	.	[2e\	.
=124	=124	=124	=124
4G\]	0r	2e\]	0r
4F\	.	.	.
2D\	.	1d	.
1E	.	.	.
.	.	2c#i\	.
=125	=125	=125	=125
4D\	0r	1d	0f
4E\	.	.	.
4F\	.	.	.
4G\	.	.	.
2A\	.	1r	.
[2B-\	.	.	.
=126	=126	=126	=126
2B-\]	0r	1r	1g
1G	.	.	.
.	.	2r	1a
2F\	.	[2d\	.
=127	=127	=127	=127
2G\	0r	2d\]	1g
2E\	.	2c\	.
1D	.	2d\	1a
.	.	[2f\	.
=128	=128	=128	=128
0r	0r	2f\]	1g
.	.	2e\	.
.	.	2f\	1f
.	.	[2d\	.
=129	=129	=129	=129
0r	0r	2d\]	2r
.	.	2B-\	1b-
.	.	2c\	.
.	.	4B-\	2a/
.	.	4A/	.
=130	=130	=130	=130
0r	0r	2G/	2b-\
.	.	2B-\	1g
.	.	1A	.
.	.	.	2f/
=131	=131	=131	=131
0r	0r	2r	2g/
.	.	4G/	4f/
.	.	4A/	4e/
.	.	4B-\	2d/
.	.	4c\	.
.	.	[2d\	2f/
=132	=132	=132	=132
0r	0r	2d\]	1e
.	.	2c\	.
.	.	2.d\	4d/
.	.	.	4e/
.	.	.	4f/
.	.	4e\	4g/
=133	=133	=133	=133
0r	0r	2f\	2a/
.	.	2.g\	2.b-\
.	.	4f\	4cc\
.	.	2d\	[2dd\
=134	=134	=134	=134
0r	0r	1e	2dd\]
.	.	.	2cc#i\
.	.	2r	1dd
.	.	[2d\	.
=135	=135	=135	=135
0r	0r	4d\]	1r
.	.	4c\	.
.	.	2A/	.
.	.	2B-\	1dd
.	.	2G/	.
=136	=136	=136	=136
0r	0r	1A	2cc\
.	.	.	2a/
.	.	2r	1b-
.	.	[2d\	.
=137	=137	=137	=137
0r	0r	4d\]	1a
.	.	4c\	.
.	.	2d\	.
.	.	2B-\	1dd
.	.	4A/	.
.	.	4G/	.
=138	=138	=138	=138
0r	0r	2A/	2cc\
.	.	2B-\	1dd
.	.	1G	.
.	.	.	[2b-\
=139	=139	=139	=139
0r	0r	2d\	2b-\]
.	.	2e\	2g/
.	.	2f\	2a/
.	.	[2g\	2b-\
=140	=140	=140	=140
0r	0r	2g\]	2g/
.	.	2.a\	2.cc\
.	.	4g\	4b-\
.	.	[2g\	4a/
.	.	.	4g/
=141	=141	=141	=141
0r	0r	2g\]	1a
.	.	2f\	.
.	.	2d\	2b-\
.	.	[2e\	[2cc\
=142	=142	=142	=142
0r	0r	4e\]	4cc\]
.	.	4d\	4b-\
.	.	4c\	4a/
.	.	4B-\	4g/
.	.	2A/	1f
.	.	[2B-\	.
=143	=143	=143	=143
0r	0r	2B-\]	2d/
.	.	2A/	2.f/
.	.	2B-\	.
.	.	.	4g/
.	.	2c\	[2a/
=144	=144	=144	=144
0r	0r	2A/	2a/]
.	.	1d	4g/
.	.	.	4f/
.	.	.	2e/
.	.	2c\	[2a/
=145	=145	=145	=145
0r	0r	2d\	2a/]
.	.	2e\	2.g/
.	.	2c\	.
.	.	.	4f/
.	.	[2f\	[2d/
=146	=146	=146	=146
0r	0r	2f\]	2d/]
.	.	1d	2f/
.	.	.	1e
.	.	2c\	.
=147	=147	=147	=147
0r	0r	2d\	2d/
.	.	2B-\	1g
.	.	1A	.
.	.	.	2f/
=148	=148	=148	=148
0r	0r	2r	2g/
.	.	2.d\	2a/
.	.	.	2f/
.	.	4c\	.
.	.	4B-\	[2b-\
.	.	4A/	.
=149	=149	=149	=149
0r	0r	2G/	4b-\]
.	.	.	4g/
.	.	2B-\	1g
.	.	1A	.
.	.	.	2f#i/
=150	=150	=150	=150
0r	0r	0G	0g
=151	=151	=151	=151
1.D	[0A	0r	0r
2C/	.	.	.
=152	=152	=152	=152
2D\	0A]	0r	0r
2.F\	.	.	.
4E\	.	.	.
2D\	.	.	.
=153	=153	=153	=153
2C/	[0c	0r	0r
1F	.	.	.
2E\	.	.	.
=154	=154	=154	=154
2F\	0c]	0r	0r
2.A\	.	.	.
4G\	.	.	.
2F\	.	.	.
=155	=155	=155	=155
2E\	1c	0r	0r
1A	.	.	.
.	1B-	.	.
2G\	.	.	.
=156	=156	=156	=156
2A\	1A	0r	0r
2c\	.	.	.
2B-\	1G	.	.
4A\	.	.	.
4G\	.	.	.
=157	=157	=157	=157
2F\	1A	0r	1r
1D	.	.	.
.	1B-	.	2r
[2G\	.	.	2g/
=158	=158	=158	=158
2G\]	1A	0r	2a/
2F\	.	.	2cc\
1G	1G	.	2b-\
.	.	.	2g/
=159	=159	=159	=159
1D	1F	1r	1a
1r	1G	1d	2r
.	.	.	[2g/
=160	=160	=160	=160
0r	0r	2e\	2g/]
.	.	2g\	2b-\
.	.	2f\	2a/
.	.	2d\	2b-\
=161	=161	=161	=161
0r	0r	2e-i\	1cc
.	.	4d\	.
.	.	4c\	.
.	.	2B-\	2dd\
.	.	[2d\	4cc\
.	.	.	4b-\
=162	=162	=162	=162
0r	0r	4d\]	2a/
.	.	4c\	.
.	.	2d\	2.b-\
.	.	2G/	.
.	.	.	4a/
.	.	[2A/	[2cc\
=163	=163	=163	=163
0r	0r	4A/]	4cc\]
.	.	4B-\	4b-\
.	.	2c\	4a/
.	.	.	4g/
.	.	2d\	2f/
.	.	[2c\	2g/
=164	=164	=164	=164
0r	0r	4c\]	2a/
.	.	4B-\	.
.	.	2G/	2.b-\
.	.	2r	.
.	.	.	4a/
.	.	2c\	2g/
=165	=165	=165	=165
0r	0r	2d\	2f/
.	.	2G/	2g/
.	.	2c\	2e/
.	.	2d\	[2d/
=166	=166	=166	=166
0r	0r	1f	2d/]
.	.	.	1dd
.	.	1e-	.
.	.	.	2cc\
=167	=167	=167	=167
2G\	0r	2d\	2b-\
2A\	.	2c\	2cc\
2F\	.	1d	2a/
[2G\	.	.	[2b-\
=168	=168	=168	=168
2G\]	0r	2B-\	2b-\]
2C/	.	2c\	1g
1D	.	1A	.
.	.	.	2f#i/
=169	=169	=169	=169
0Gl	0r	0Gl	0gl
!!LO:TX:i:Y=40:rj:t=Osanna ut supra
=||	=||	=||	=||
*-	*-	*-	*-
!!!RDF**kern: l=long note in original notation
!!!RDF**kern: i=editorial accidental
!!!RDF**kern: V=start of tuplet marker
!!!RDF**kern: Z=end of tuplet marker
!!!ENC:	Jesse Rodin 8/12/2013
!!!END:	2013/08/12/
!!!EED:	Jesse Rodin
!!!EEV:	2016/02/08/
!!!ONB:	Translated from MusicXML and edited on 2016/02/08/ by Craig Sapp
!!muse2ps: T^@{OPR}^u^@{ONM}{. }@{OTL}^C^@{COM}^i2I150v85,85,85,150Q16
